X:416
T:Angus Polka No.1
T:Cameron Men's Polka No.1
D:Boys of the Lough, Farewell and Remember Me
Z:Nigel Gatherer
M:2/4
L:1/16
K:D
A2f2 B2g2 | A2f2 f2ef | gfed cdef | edcB AGFG |
A2f2 B2g2 | A2f2 f2ef | gfed cABc |1 d2f2 d3B :|2 d2f2 d3 z ||
F2A2 ABAF | G2B2 B2cB | A2cB AGFE | DFAB A2AG |
F2A2 ABAF | G2B2 B2cB | ABcB AGFE | D2F2 D2z2 :|]
<end>
<start>
